svgs/thin/file-xmark.svg

<svg xmlns="http://www.w3.org/2000/svg" viewBox="0 0 384 512"><!--! Font Awesome Pro 6.3.0 by @fontawesome - https://fontawesome.com License - https://fontawesome.com/license (Commercial License) Copyright 2023 Fonticons, Inc. --><path d="M374.6 150.6l-141.3-141.3C227.4 3.371 219.2 0 210.7 0H64C28.65 0 0 28.65 0 64l.0065 384c0 35.34 28.65 64 64 64H320c35.35 0 64-28.66 64-64V173.3C384 164.8 380.6 156.6 374.6 150.6zM224 22.63L361.4 160H248C234.8 160 224 149.2 224 136V22.63zM368 448c0 26.47-21.53 48-48 48H64c-26.47 0-48-21.53-48-48V64c0-26.47 21.53-48 48-48h144v120c0 22.06 17.94 40 40 40h120V448zM125.7 242.3c-3.125-3.125-8.188-3.125-11.31 0s-3.125 8.188 0 11.31L180.7 320l-66.34 66.34c-3.125 3.125-3.125 8.188 0 11.31c3.125 3.127 8.188 3.127 11.31 0L192 331.3l66.34 66.34c3.125 3.127 8.188 3.127 11.31 0c3.125-3.125 3.125-8.188 0-11.31L203.3 320l66.34-66.34c3.125-3.125 3.125-8.188 0-11.31s-8.188-3.125-11.31 0L192 308.7L125.7 242.3z"/></svg>

<svg xmlns="http://www.w3.org/2000/svg" viewBox="0 0 384 512"><!-- Font Awesome Pro 6.0.0-alpha2 by @fontawesome - https://fontawesome.com License - https://fontawesome.com/license (Commercial License) --><path d="M374.629 150.625L233.371 9.375C227.371 3.371 219.23 0 210.746 0H64C28.652 0 0 28.652 0 64V448C0 483.344 28.652 512 64 512H320C355.348 512 384 483.344 384 448V173.254C384 164.766 380.629 156.629 374.629 150.625ZM224 22.629L361.375 160H248C234.781 160 224 149.234 224 136V22.629ZM368 448C368 474.469 346.469 496 320 496H64C37.531 496 16 474.469 16 448V64C16 37.531 37.531 16 64 16H208V136C208 158.062 225.938 176 248 176H368V448ZM125.656 242.344C122.531 239.219 117.469 239.219 114.344 242.344S111.219 250.531 114.344 253.656L180.688 320L114.344 386.342C111.219 389.467 111.219 394.529 114.344 397.654C117.469 400.781 122.531 400.781 125.656 397.654L192 331.312L258.344 397.654C261.469 400.781 266.531 400.781 269.656 397.654C272.781 394.529 272.781 389.467 269.656 386.342L203.312 320L269.656 253.656C272.781 250.531 272.781 245.469 269.656 242.344S261.469 239.219 258.344 242.344L192 308.688L125.656 242.344Z"/></svg>
